static/card-icons/category.svg

<svg viewBox="0 0 512 512" xmlns="http://www.w3.org/2000/svg"><path d="m217.043 0h-200.347c-9.221 0-16.696 7.475-16.696 16.696v200.348c0 9.22 7.475 16.696 16.696 16.696h200.348c9.22 0 16.696-7.475 16.696-16.696v-200.348c-.001-9.221-7.476-16.696-16.697-16.696zm-16.695 200.348h-166.957v-166.957h166.957z"/><path d="m495.304 0h-200.347c-9.22 0-16.696 7.475-16.696 16.696v200.348c0 9.22 7.475 16.696 16.696 16.696h200.348c9.22 0 16.696-7.475 16.696-16.696v-200.348c-.001-9.221-7.476-16.696-16.697-16.696zm-16.695 200.348h-166.957v-166.957h166.957z"/><path d="m217.043 278.261h-200.347c-9.221 0-16.696 7.475-16.696 16.696v200.348c0 9.22 7.475 16.695 16.696 16.695h200.348c9.22 0 16.696-7.475 16.696-16.696v-200.347c-.001-9.221-7.476-16.696-16.697-16.696zm-16.695 200.348h-166.957v-166.957h166.957z"/><path d="m495.304 278.261h-200.347c-9.22 0-16.696 7.475-16.696 16.696v200.348c0 9.22 7.475 16.696 16.696 16.696h200.348c9.22 0 16.696-7.475 16.696-16.696v-200.348c-.001-9.221-7.476-16.696-16.697-16.696zm-16.695 200.348h-166.957v-166.957h166.957z"/></svg>

<?xml version="1.0" encoding="iso-8859-1"?>
<!-- Generator: Adobe Illustrator 19.0.0, SVG Export Plug-In . SVG Version: 6.00 Build 0)  -->
<svg version="1.1" id="Layer_1" xmlns="http://www.w3.org/2000/svg" xmlns:xlink="http://www.w3.org/1999/xlink" x="0px" y="0px"
	 viewBox="0 0 512 512" style="enableBackground:new 0 0 512 512;" xml:space="preserve">
<g>
	<g>
		<path d="M217.043,0H16.696C7.475,0,0,7.475,0,16.696v200.348c0,9.22,7.475,16.696,16.696,16.696h200.348
			c9.22,0,16.696-7.475,16.696-16.696V16.696C233.739,7.475,226.264,0,217.043,0z M200.348,200.348H33.391V33.391h166.957V200.348z"
			/>
	</g>
</g>
<g>
	<g>
		<path d="M495.304,0H294.957c-9.22,0-16.696,7.475-16.696,16.696v200.348c0,9.22,7.475,16.696,16.696,16.696h200.348
			c9.22,0,16.696-7.475,16.696-16.696V16.696C512,7.475,504.525,0,495.304,0z M478.609,200.348H311.652V33.391h166.957V200.348z"/>
	</g>
</g>
<g>
	<g>
		<path d="M217.043,278.261H16.696C7.475,278.261,0,285.736,0,294.957v200.348C0,504.525,7.475,512,16.696,512h200.348
			c9.22,0,16.696-7.475,16.696-16.696V294.957C233.739,285.736,226.264,278.261,217.043,278.261z M200.348,478.609H33.391V311.652
			h166.957V478.609z"/>
	</g>
</g>
<g>
	<g>
		<path d="M495.304,278.261H294.957c-9.22,0-16.696,7.475-16.696,16.696v200.348c0,9.22,7.475,16.696,16.696,16.696h200.348
			c9.22,0,16.696-7.475,16.696-16.696V294.957C512,285.736,504.525,278.261,495.304,278.261z M478.609,478.609H311.652V311.652
			h166.957V478.609z"/>
	</g>
</g>
<g>
</g>
<g>
</g>
<g>
</g>
<g>
</g>
<g>
</g>
<g>
</g>
<g>
</g>
<g>
</g>
<g>
</g>
<g>
</g>
<g>
</g>
<g>
</g>
<g>
</g>
<g>
</g>
<g>
</g>
</svg>
